X:1
T: Owen Malone
C:
R:Jig
Q:180
K:G
M:6/8
L:1/16
|:Bc|d2B2G2 G2g2e2|d2B2G2 G2g2e2|d2c2B2 d2c2B2|A2B2A2 A2B2c2|
d2B2G2 G2g2e2|d2B2G2 G2g2e2|d2e2f2 g2d2B2|1G2A2G2 G4Bc:|2G2A2G2 G4BA|
|:B2d2d2 A2d2d2|g2a2g2 f4d2|B2d2d2 A2d2d2|g2e2^c2 d2e2=c2|
B2d2d2 A2d2d2|g2a2g2 f4e2|d2e2f2 g2d2B2|1G2A2G2 G4BA:|2G2A2G2 G4||
